assets/svg/records.svg

<?xml version="1.0" encoding="UTF-8"?>
<svg width="1000px" height="1000px" viewBox="0 0 1000 1000" version="1.1" xmlns="http://www.w3.org/2000/svg" xmlns:xlink="http://www.w3.org/1999/xlink">
    <!-- Generator: sketchtool 52.4 (67378) - http://www.bohemiancoding.com/sketch -->
    <title>records</title>
    <desc>Created with sketchtool.</desc>
    <g id="新版图标" stroke="none" stroke-width="1" fill="none" fill-rule="evenodd">
        <g id="records" fill="#323233">
            <g id="圆角-记录-线">
                <path d="M527.777778,111.111111 L222.222222,111.111111 L218.166667,111.111111 C189.722222,111.111111 166.666667,134.166667 166.666667,162.611111 L166.666667,892.944444 C166.666667,921.388889 189.722222,944.444444 218.166667,944.444444 L726.277778,944.444444 C754.722222,944.444444 777.777778,921.388889 777.777778,892.944444 L777.777778,888.888889 L777.777778,361.111111 C777.777778,345.777778 765.333333,333.333333 750,333.333333 C734.666667,333.333333 722.222222,345.777778 722.222222,361.111111 L722.222222,888.888889 L222.222222,888.888889 L222.222222,166.666667 L527.777778,166.666667 C543.111111,166.666667 555.555556,154.222222 555.555556,138.888889 C555.555556,123.555556 543.111111,111.111111 527.777778,111.111111 M472.222222,666.666667 L305.555556,666.666667 C290.222222,666.666667 277.777778,679.111111 277.777778,694.444444 C277.777778,709.777778 290.222222,722.222222 305.555556,722.222222 L472.222222,722.222222 C487.555556,722.222222 500,709.777778 500,694.444444 C500,679.111111 487.555556,666.666667 472.222222,666.666667 M472.222222,777.777778 L305.555556,777.777778 C290.222222,777.777778 277.777778,790.222222 277.777778,805.555556 C277.777778,820.888889 290.222222,833.333333 305.555556,833.333333 L472.222222,833.333333 C487.555556,833.333333 500,820.888889 500,805.555556 C500,790.222222 487.555556,777.777778 472.222222,777.777778 M726.944444,55.5555556 C719.888889,55.5555556 712.777778,58.2777778 707.333333,63.6666667 L496.833333,274.222222 C493.166667,277.888889 490.555556,282.444444 489.222222,287.444444 L460.5,394.611111 C455.611111,412.666667 469.611111,429.388889 487.055556,429.388889 C489.444444,429.388889 491.888889,429.055556 494.333333,428.388889 L601.444444,399.666667 C606.444444,398.333333 611,395.722222 614.666667,392.055556 L825.277778,181.555556 C836.055556,170.666667 836.055556,153.166667 825.277778,142.333333 L746.555556,63.6666667 C741.111111,58.2777778 734.055556,55.5555556 726.944444,55.5555556 M726.944444,122.666667 L766.222222,161.944444 L580.333333,347.833333 L526.722222,362.222222 L541.055556,308.555556 L726.944444,122.666667" id="Fill-5"></path>
            </g>
        </g>
    </g>
</svg>

<svg width="1000" height="1000" xmlns="http://www.w3.org/2000/svg"><path d="M527.778 111.111H218.167c-28.445 0-51.5 23.056-51.5 51.5v730.333c0 28.445 23.055 51.5 51.5 51.5h508.11c28.445 0 51.5-23.055 51.5-51.5V361.111c0-15.333-12.444-27.778-27.777-27.778s-27.778 12.445-27.778 27.778V888.89h-500V166.667h305.556c15.333 0 27.778-12.445 27.778-27.778 0-15.333-12.445-27.778-27.778-27.778m-55.556 555.556H305.556c-15.334 0-27.778 12.444-27.778 27.777 0 15.334 12.444 27.778 27.778 27.778h166.666c15.334 0 27.778-12.444 27.778-27.778 0-15.333-12.444-27.777-27.778-27.777m0 111.11H305.556c-15.334 0-27.778 12.445-27.778 27.779 0 15.333 12.444 27.777 27.778 27.777h166.666c15.334 0 27.778-12.444 27.778-27.777 0-15.334-12.444-27.778-27.778-27.778M726.944 55.556c-7.055 0-14.166 2.722-19.61 8.11l-210.5 210.556a29.374 29.374 0 0 0-7.612 13.222L460.5 394.611c-4.889 18.056 9.111 34.778 26.556 34.778 2.388 0 4.833-.333 7.277-1l107.111-28.722c5-1.334 9.556-3.945 13.223-7.611l210.61-210.5c10.779-10.89 10.779-28.39 0-39.223l-78.721-78.666c-5.445-5.39-12.5-8.111-19.612-8.111m0 67.11l39.278 39.278-185.889 185.89-53.61 14.388 14.333-53.666 185.888-185.89" fill="#323233" fill-rule="evenodd"/></svg>
